X: 566
T: Dil-rubasın Sevdiğim
C: Hâfız Mehmet Eşref Efendi
O: Turkey
F: http://compmusic.upf.edu/node/140
N: huseyni--sarki--devrihindi--dil-rubasin_sevdigim--hafiz_mehmet_esref_efendi
N: makam= huseyni
N: form= sarki
N: usul= devrihindi = 7/4
M: 7/4
L: 1/16
K: C _2/4B ^3/4f  
Q: 1/4=90
%%MIDI tuningsystem comma53
A4 e4 e4 e3d c2d2 e6d2  | e2f2 g2a2 {=b}a2g2 g2fg ^2/4f2e2 e8  | 
w:  ARANAĞME  |   | 
e2f2 g2_b2 a2g2 =f3e d2e2 c2d2 c2B2  | \
w:   | 
A2B2 c2d2 e2d2 c2B2 {c}B2A2 A8  | 
w:   | 
A4 e4 e4 e3d c2d2 e6d2  | e2f2 g2a2 {=b}a2g2 g2fg ^2/4f2e2 e8  | 
w:  ARANAĞME  |   | 
e2f2 g2_b2 a2g2 =f3e d2e2 c2d2 c2B2  | \
w:   | 
A2B2 c2d2 e2d2 c2B2 {c}B2A2 A8  | 
w:   | 
A8 a4 g2fe f2g2 .e8  | e2=fg e2d2 d2c2 c2B2 {c}B2A2 A2Bc BAG2  | 
w:  Dil ru bâ *  *  *  *  sın   |  sev *  *  *  *  di *  ğim  *  *  *  *  yok  | 
A3B c2d2 e2f2 g2a2 {=b}a2g2 f3e d4  | \
w:  tur  *  *  *  na *  zî *  *  *  *  rin   | 
(3c'2=b2a2 a2g2 g2f2 efg4^2/4fe e8  | 
w:  bi *  *  *  *  rî *  ya    | 
e3d d3c c3B B3A Ag^2/4fg e3d cBA2  | \
w:  SAZ  | 
A8 a4 g2fe f2g2 .e8  | 
w:  Dil ru bâ *  *  *  *  sın   | 
e2=fg e2d2 d2c2 c2B2 {c}B2A2 A2Bc BAG2  | \
w:  sev *  *  *  *  di *  ğim  *  *  *  *  yok  | 
A3B c2d2 e2f2 g2a2 {=b}a2g2 f3e d4  | 
w:  tur  *  *  *  na *  zî *  *  *  *  rin   | 
(3c'2=b2a2 a2g2 g2f2 efg4^2/4fe e8  | \
w:  bi *  *  *  *  rî *  ya    | 
e3d d3c c3B B3A Ag^2/4fg e3d cde2  | 
w:  SAZ  | 
e8 d4 g2fg e2d2 d3/2=f/ed c4  | d2e2 c2d2 c2B2 A2G2 e2dc c8  | 
w:  Dol du  gön *  *  *  *  lüm   |  lem *  *  *  a  *  i  *  *  *  *  aş  | 
c2d2 e3d d4 c2{d}cB A4 B2A2 d4  | \
w:  kın *  *  *  la  ol *  *  *  *  du   | 
c2d2 c2B2 B2A2 ABc4BA A8  | 
w:  neş *  *  *  e *  zâ    | 
e3d d3c c3B B3A Ag^2/4fg e3d cde2  | \
w:  SAZ  | 
e8 d4 g2fg e2d2 d3/2=f/ed c4  | 
w:  Dol du  gön *  *  *  *  lüm   | 
d2e2 c2d2 c2B2 A2G2 e2dc c8  | c2d2 e3d d4 c2{d}cB A4 B2A2 d4  | 
w:  lem *  *  *  a  *  i  *  *  *  *  aş  |  kın *  *  *  la  ol *  *  *  *  du   | 
c2d2 c2B2 B2A2 ABc4BA A8  | A3_1/4B ^c2d2 ^3/4e2^f2 g3f e2g2 f8  | 
w:  neş *  *  *  e *  zâ    |  SAZ  | 
^f3^e d3^c _1/4B4 g3f e2g2 f8  | ^c4 d2_1/4B2 B2A2 A2G2 {A}G2^F2 F8  | \
w:  Ner *  *  *  gis_ i  *  *  *  mes  |  tâ nı *  na  *  *  *  *  *  *  can  | 
d4 e4 e2f2 g2a2 {=b}a2g2 ^2/4f3e d4  | 
w:  lar  *  da *  yan *  *  *  *  maz   | 
(3c'2=b2a2 a2g2 g2^f2 e^3/4fg4^2/4fe e8  | \
w:  ey  *  *  *  *  şe *  hâ    | 
e3d d3c c3B B3A Ag^2/4fg e3d cde2  | 
w:  SAZ  | 
e8 d4 g2fg e2d2 d3/2=f/ed c4  | d2e2 c2d2 c2B2 A2G2 e2dc c8  | 
w:  Dol du  gön *  *  *  *  lüm   |  lem *  *  *  a  *  i  *  *  *  *  aş  | 
c2d2 e3d d4 c2{d}cB A4 B2A2 d4  | \
w:  kın *  *  *  la  ol *  *  *  *  du   | 
c2d2 c2B2 B2A2 ABc4BA A8  | 
w:  neş *  *  *  e *  zâ    | 
|


